X: 308
T: The cat and the bacon
C: anon.
O: Ireland
B: Francis O'Neill: "The Dance Music of Ireland" (1907) no. 308
R: Double jig
Z: Transcribed by Frank Nordberg - http://www.musicaviva.com
F: http://www.musicaviva.com/abc/tunes/ireland/oneill-1001/oneill-1001-030
8.abc
M: 6/8
L: 1/8
K: D
G|Add Add|(e/f/ed) c2A|Add Add|(e/f/ed) cAG|Add Add|(e/f/ed) c2d|ecA (G2E
)|({G}F)DD D2:|
|:(f/g/)|aba gag|fed ecA|(Ac/B/A) c2d|cAd cAG|Add Add|(e/f/ed) c2d|eaa ge
c|edd d2:|
W:
W:
W: From Musica Viva - http://www.musicaviva.com
W: the Internet center for free sheet music downloads.


